X: 5
T: Castle Kelly
Z: birlibirdie
S: https://thesession.org/tunes/21#setting12400
R: reel
M: 4/4
L: 1/8
K: Bmin
|:B2dB BcdB|AdFA A2FA|B2dB ABde|fdec dBB2:|
bafd egfe|dBAF A3a|bafd e2de|fbba b2c'b|
afed egfe|dBAF A2FA|B2dB ABde|fdec dBBA||

